lib/functional/maps&travel/globe-hemisphere-west.svg

<svg xmlns="http://www.w3.org/2000/svg" fill="none" stroke="currentColor" aria-hidden="true" viewBox="0 0 32 32"><g id="Icon-GlobeHemisphereWest"><g clip-path="url(#clip0_10_1745)"><g id="size=md (32px)"><g id="GlobeHemisphereWest"><path id="Vector" stroke-linecap="round" stroke-linejoin="round" stroke-width="2" d="M16 28C22.6274 28 28 22.6274 28 16C28 9.37258 22.6274 4 16 4C9.37258 4 4 9.37258 4 16C4 22.6274 9.37258 28 16 28Z"/><path id="Vector_2" stroke-linecap="round" stroke-linejoin="round" stroke-width="2" d="M26.7749 21.3L19.9874 17.125C19.8705 17.0499 19.7379 17.0028 19.5999 16.9875L16.7374 16.6C16.5238 16.5693 16.3061 16.6104 16.1183 16.7167C15.9306 16.823 15.7834 16.9886 15.6999 17.1875L13.9874 21.025C13.9068 21.2035 13.8805 21.4017 13.9116 21.595C13.9427 21.7883 14.0299 21.9683 14.1624 22.1125L16.5124 24.65C16.6186 24.7667 16.6964 24.9064 16.7398 25.0582C16.7831 25.21 16.7909 25.3697 16.7624 25.525L16.2749 28"/><path id="Vector_3" stroke-linecap="round" stroke-linejoin="round" stroke-width="2" d="M8.12522 6.95001L7.00022 9.60001C6.90222 9.83527 6.89775 10.0991 6.98772 10.3375L8.42522 14.1625C8.4814 14.3219 8.57756 14.4643 8.7045 14.5759C8.83144 14.6875 8.98491 14.7647 9.15022 14.8L11.8252 15.375C11.9737 15.405 12.1131 15.4693 12.2325 15.5626C12.3518 15.6558 12.4478 15.7757 12.5127 15.9125L12.9877 16.9C13.0721 17.067 13.2006 17.2077 13.3592 17.3068C13.5179 17.406 13.7007 17.4598 13.8877 17.4625H15.5752"/><path id="Vector_4" stroke-linecap="round" stroke-linejoin="round" stroke-width="2" d="M19.0627 4.38751L20.2252 6.48751C20.3325 6.68494 20.3711 6.91247 20.3349 7.13425C20.2987 7.35604 20.1897 7.55947 20.0252 7.71251L16.6627 10.75C16.6064 10.8038 16.5434 10.85 16.4752 10.8875L14.9377 11.7375C14.7911 11.8153 14.6286 11.8581 14.4627 11.8625H11.7877C11.5906 11.8635 11.3981 11.922 11.2338 12.0308C11.0695 12.1396 10.9405 12.294 10.8627 12.475L9.8252 14.9375"/></g></g></g></g><defs><clipPath id="clip0_10_1745"><rect width="32" height="32" fill="white" rx="5"/></clipPath></defs></svg>

<svg xmlns="http://www.w3.org/2000/svg" fill="none" stroke="currentColor" aria-hidden="true" viewBox="0 0 32 32"><g stroke="#101828" stroke-linecap="round" stroke-linejoin="round" stroke-width="2" clip-path="url(#a)"><path d="M16 28c6.627 0 12-5.373 12-12S22.627 4 16 4 4 9.373 4 16s5.373 12 12 12Z"/><path d="m26.775 21.3-6.788-4.175a.9.9 0 0 0-.387-.137l-2.863-.388a.975.975 0 0 0-1.037.587l-1.713 3.838a1 1 0 0 0 .175 1.088l2.35 2.537a1.025 1.025 0 0 1 .25.875L16.275 28"/><path d="M8.125 6.95 7 9.6a1 1 0 0 0-.012.738l1.437 3.825a.988.988 0 0 0 .725.637l2.675.575a.975.975 0 0 1 .688.537l.475.988a1.025 1.025 0 0 0 .9.563h1.687"/><path d="m19.063 4.388 1.162 2.1a1.013 1.013 0 0 1-.2 1.225l-3.362 3.037a.897.897 0 0 1-.188.137l-1.537.85c-.147.078-.31.121-.475.126h-2.675a1.013 1.013 0 0 0-.925.612l-1.038 2.463"/></g><defs><clipPath id="a"><rect width="32" height="32" fill="#fff" rx="5"/></clipPath></defs></svg>
